X:21
T:Pierre de Grenoble
R:Chanson
O:France
B:Le livre des Chansons (Henri Davenson) n21
Z:<anamnese@laposte.net> -- http://anamnese.fr.st
M:6/8
L:1/8
Q:1/4=90
K:C
A A A | A2 c B2 c | A A c c B c | A2 c c B c | A2 z A A A |!
A2 G F2 E | F F F F E F | D2 F F E F | D3-D z z ||
W:Quand Pierre partit pour l'arme,
W:sept ans demeurer (2x)
W:A laiss sa mie  Grenoble,
W:qui fait que pleurer (2x)
W: 
W:Pierre a envoy une lettre qu'est pleine d'amours ;
W:La belle a fait une rponse qu'est pleine de plours. /.../
